X:138
T:Reel de Montebello
R: reel
M: 4/4
L: 1/8
K: Amin
EABc ecBA | FABc ecBA | GABc dcBd | edBc dcBA |
EABc ecBA | FABc ecBA | GABc dcBG | EDEG A3z :|
aece gecA | GABc dcBA | gddf ddgf | edcB cdeg |
aece gecA | GABc dcBA | gddf ddgf | edcB A3z :|

